X:19095
T:Xiraldilla (CT 467)
R:Xiraldilla
C:Tradicional
S:Música Tradicional Asturiana, (C) Tello & Tito. Asturies, 2001.
S:http://pagina.de/MusTradAst <telloytito@asturies.org>
N:Xiraldilla, transcrita en Cangas d'Onís.
O:Cangas d'Onís
A:Asturies
Z:Cancioneru de Torner 467
M:3/8
L:1/8
Q:3/8=88
W:L'agua del ríu cuerre,
W:la del arroyo remansa:
W:quien tien amores nun duerme,
W:quien nun los tien descansa.
W:
W:¡Ai mi Dolores, calla bien mio;
W:dexa que cuerra l'agua del ríu.
K:C
|:B2B|B2A|d2c|B2A|G2A| B2A|G2F|E2E:|
|:FFF|(F3/2E/2)D|EEE|[1 (D3/2C/2)B,:|[2 (D3/2C/2)B,-|B,||


